X: 28
T:Smith's a Gallant Fireman, the
M:4/4
L:1/8
Q:160
S:James G-H learnt this from CD
R:Strathspey
K:D
D2 D>E F<AA>B|A>Bd>A F2 D2|E2 E>F B<BB>c|d>fe>d B>AB<d|!
D2 D>E F<AA>B|A>Bd>A F2 (3DEF|G>BG<B F>AF<A|E>FG>A B>AB<c|!
d2 f>e d<dd>B|A>Bd>A F2 D2|e2 e>f e<ee>f|g>fe>d B>AB<c|!
d2 f>e d<dd>B|A>Bd>A F2 (3DEF|G>BG<B F>AF<A|E>FG>A B>AB<d||
% <A name="D1X029"></A>

